X:3505
T:Courento dla Rocho
C:Peron/Ferrero
M:6/8
L:1/8
K:G
d3|A2B cBA|G2G d2d|A2B cBA|G3d3|\
A2B cBA|G2G d2d|A2B cBA|G3||*
dBd|e2e gfe|d2B ded|A2B cAe|d2B dBd|\
e2e gfe|d2B ded|A2B cBA|G3:|**


